X:1
T:Root Hog Or Die
M:6/8
L:1/4
K:C
 E- D/2| C D/2 E F/2| G A/2 G E/2| F G/2 F E/2| D3/2 z z/2| D E/2 F G/2|\
 A A/2 A A/2| G G/2 B A/2| G3/2 G G/2| G G/2 A B/2| c/2 c z E/2| E D/2 D E/2|\
 F3/2 z z/2| B,3/2 B, A,/2| G, G,/2 G F/2| E- D/2 C B,/2| C3/2 z z/2|\
